assets/camera-reel.svg

<svg xmlns="http://www.w3.org/2000/svg" fill="none" viewBox="0 0 28 28">
  <path stroke="#2A2238" stroke-width="1.5" d="M16.625 11.25h.0001c.667-.0001 1.3113.2423 1.8129.6819s.8263 1.0466.9137 1.7078l.1314.9945.9167-.4073 5.4425-2.4185.0007-.0003c.1522-.0679.319-.0966.4851-.0835.1662.013.3264.0673.4662.158.1398.0908.2548.215.3343.3614.0796.1464.1213.3104.1214.4771v13.0575c-.0001.1665-.0419.3304-.1214.4767-.0795.1463-.1943.2704-.334.3611-.1396.0907-.2997.1451-.4658.1582-.166.0131-.3326-.0154-.4848-.083l-5.4443-2.4185-.9166-.4072-.1314.9944c-.0874.6612-.4121 1.2682-.9137 1.7078-.5016.4396-1.1459.682-1.8129.6819H3.5c-.72935 0-1.42882-.2897-1.94454-.8055C1.03973 25.9288.75 25.2293.75 24.5V14c0-.7293.28973-1.4288.80546-1.9445.51572-.5158 1.21519-.8055 1.94454-.8055h13.125Zm-6.875-6c0 1.19347-.47411 2.33807-1.31802 3.18198C7.58807 9.27589 6.44347 9.75 5.25 9.75c-1.19347 0-2.33807-.47411-3.18198-1.31802C1.22411 7.58807.75 6.44347.75 5.25c0-1.19347.47411-2.33807 1.31802-3.18198C2.91193 1.22411 4.05653.75 5.25.75c1.19347 0 2.33807.47411 3.18198 1.31802C9.27589 2.91193 9.75 4.05653 9.75 5.25Zm2.818 3.18198C11.7241 7.58807 11.25 6.44347 11.25 5.25c0-1.19347.4741-2.33807 1.318-3.18198C13.4119 1.22411 14.5565.75 15.75.75s2.3381.47411 3.182 1.31802c.8439.84391 1.318 1.98851 1.318 3.18198 0 1.19347-.4741 2.33807-1.318 3.18198C18.0881 9.27589 16.9435 9.75 15.75 9.75s-2.3381-.47411-3.182-1.31802Z"/>
</svg>

<svg width="28" height="28" viewBox="0 0 28 28" fill="none" xmlns="http://www.w3.org/2000/svg">
<path d="M16.625 11.25H16.6251C17.2921 11.2499 17.9364 11.4923 18.438 11.9319C18.9396 12.3715 19.2643 12.9785 19.3517 13.6397L19.4831 14.6342L20.3998 14.2269L25.8423 11.8084L25.843 11.8081C25.9952 11.7402 26.162 11.7115 26.3281 11.7246C26.4943 11.7376 26.6545 11.7919 26.7943 11.8826C26.9341 11.9734 27.0491 12.0976 27.1286 12.244C27.2082 12.3904 27.2499 12.5544 27.25 12.7211V25.7786C27.2499 25.9451 27.2081 26.109 27.1286 26.2553C27.0491 26.4016 26.9343 26.5257 26.7946 26.6164C26.655 26.7071 26.4949 26.7615 26.3288 26.7746C26.1628 26.7877 25.9962 26.7592 25.844 26.6916L25.844 26.6916L20.3997 24.2731L19.4831 23.8659L19.3517 24.8603C19.2643 25.5215 18.9396 26.1285 18.438 26.5681C17.9364 27.0077 17.2921 27.2501 16.6251 27.25H16.625H3.5C2.77065 27.25 2.07118 26.9603 1.55546 26.4445C1.03973 25.9288 0.75 25.2293 0.75 24.5V14C0.75 13.2707 1.03973 12.5712 1.55546 12.0555C2.07118 11.5397 2.77065 11.25 3.5 11.25H5.25H15.75H16.625ZM9.75 5.25C9.75 6.44347 9.27589 7.58807 8.43198 8.43198C7.58807 9.27589 6.44347 9.75 5.25 9.75C4.05653 9.75 2.91193 9.27589 2.06802 8.43198C1.22411 7.58807 0.75 6.44347 0.75 5.25C0.75 4.05653 1.22411 2.91193 2.06802 2.06802C2.91193 1.22411 4.05653 0.75 5.25 0.75C6.44347 0.75 7.58807 1.22411 8.43198 2.06802C9.27589 2.91193 9.75 4.05653 9.75 5.25ZM12.568 8.43198C11.7241 7.58807 11.25 6.44347 11.25 5.25C11.25 4.05653 11.7241 2.91193 12.568 2.06802C13.4119 1.22411 14.5565 0.75 15.75 0.75C16.9435 0.75 18.0881 1.22411 18.932 2.06802C19.7759 2.91193 20.25 4.05653 20.25 5.25C20.25 6.44347 19.7759 7.58807 18.932 8.43198C18.0881 9.27589 16.9435 9.75 15.75 9.75C14.5565 9.75 13.4119 9.27589 12.568 8.43198Z" stroke="#2A2238" stroke-width="1.5"/>
</svg>
